src/images/trading_app/purchase/trade_types/ic_rise_light.svg

<?xml version="1.0" encoding="UTF-8"?>
<svg width="16px" height="16px" viewBox="0 0 16 16" version="1.1" xmlns="http://www.w3.org/2000/svg" xmlns:xlink="http://www.w3.org/1999/xlink">
    <!-- Generator: Sketch 50.2 (55047) - http://www.bohemiancoding.com/sketch -->
    <title>icons/trade types/light/rise-fall/ic-light-rise</title>
    <desc>Created with Sketch.</desc>
    <defs></defs>
    <g id="icons/trade-types/light/rise-fall/ic-light-rise" stroke="none" stroke-width="1" fill="none" fill-rule="evenodd">
        <g id="binary/icons/rise/rise-off" fill="#2A3052">
            <g id="Group-Copy">
                <rect id="border" opacity="0" x="0" y="0" width="16" height="16"></rect>
                <path d="M3.81231577,8.10987363 C3.59667077,7.9373864 3.28202743,7.97237268 3.10954019,8.18801767 C2.93705296,8.40366267 2.97203924,8.71830601 3.18768423,8.89079325 L5.68768423,10.8904598 C5.89261686,11.0543786 6.18940425,11.0319707 6.36740172,10.8391401 L12.3674017,4.33914005 C12.5547036,4.13622968 12.5420504,3.81990016 12.3391401,3.63259828 C12.1362297,3.4452964 11.8199002,3.45794958 11.6325983,3.66085995 L5.9485515,9.81857729 L3.81231577,8.10987363 Z" id="Path" fill-rule="nonzero"></path>
                <path d="M12,4 L12,5.5 C12,5.77614237 12.2238576,6 12.5,6 C12.7761424,6 13,5.77614237 13,5.5 L13,3.5 C13,3.22385763 12.7761424,3 12.5,3 L10.5,3 C10.2238576,3 10,3.22385763 10,3.5 C10,3.77614237 10.2238576,4 10.5,4 L12,4 Z" id="Rectangle" fill-rule="nonzero"></path>
            </g>
        </g>
    </g>
</svg>

<svg width="16" height="16" viewBox="0 0 16 16" xmlns="http://www.w3.org/2000/svg"><title>icons/trade types/light/rise-fall/ic-light-rise</title><g fill-rule="nonzero" fill="#2A3052"><path d="M3.812 8.11a.5.5 0 0 0-.624.78l2.5 2a.5.5 0 0 0 .68-.05l6-6.5a.5.5 0 0 0-.735-.68L5.949 9.82l-2.137-1.71z"/><path d="M12 4v1.5a.5.5 0 1 0 1 0v-2a.5.5 0 0 0-.5-.5h-2a.5.5 0 1 0 0 1H12z"/></g></svg>
